tsj_gemstone/static/tsj_gemstone/images/outlines/asscher.svg

<svg version="1.1" xmlns="http://www.w3.org/2000/svg" xmlns:xlink="http://www.w3.org/1999/xlink" x="0px" y="0px"
	 viewBox="0 0 216 216" enable-background="new 0 0 216 216" xml:space="preserve">
<path d="M215.1,49c-0.1-0.2-0.2-0.4-0.3-0.6L167.6,1.2c-0.2,0-0.4-0.1-0.6-0.3H49c-0.2,0.1-0.4,0.2-0.6,0.3L1.2,48.4
	c0,0.2-0.1,0.4-0.3,0.6v118c0.1,0.2,0.2,0.4,0.3,0.6l47.2,47.2c0.2,0.2,0.4,0.3,0.6,0.3h118c0.2,0,0.5-0.1,0.6-0.3l47.2-47.2
	c0-0.2,0.1-0.4,0.3-0.6V49z M2.7,50.5l6.8,3.8l17.4,9.7v88.2l-17.4,9.7l-6.8,3.8V50.5z M167.2,3.2l45.6,45.6l-0.9,0.5l-23.4,13
	l-34.8-34.8l13.4-24.2L167.2,3.2z M187.4,151.1l-5.4-3l-11-6.1V74l16.4-9.1V151.1z M46.7,141.1V74.9l2.7,1.5l6.8,3.8v55.6l-8.9,4.9
	L46.7,141.1z M57.9,80.1l22.1-22.1h55.9l22.1,22.1v55.9l-22.1,22.1H80.1l-22.1-22.1V80.1z M159.8,135.8V80.2l6.8-3.8l2.7-1.5v66.2
	l-0.7-0.4L159.8,135.8z M168.8,73.2l-9.7,5.4l-21.7-21.7l5.4-9.7l13,13L168.8,73.2z M139.6,49.4l-3.8,6.8H80.2l-3.8-6.8l-1.5-2.7
	h66.2L139.6,49.4z M76.4,166.6l3.8-6.8h55.6l3.8,6.8l1.5,2.7H74.9L76.4,166.6z M142.8,168.8l-5.4-9.7l21.7-21.7l6.6,3.7l3.1,1.7
	l-13,13L142.8,168.8z M186.9,63.2l-0.2,0.1l-16.4,9.1L157,59l-13.4-13.4l9.1-16.4l0.1-0.2l17,17L186.9,63.2z M149,32.5l-6.9,12.5
	H73.9l-6.1-11l-3-5.4h86.3L149,32.5z M73.2,47.2l5.4,9.7L56.9,78.6l-9.7-5.4l13-13L73.2,47.2z M28.6,151.1V64.9l2.7,1.5L44.9,74V142
	l-11.7,6.5L28.6,151.1z M47.2,142.8l3.1-1.7l6.6-3.7l21.7,21.7l-5.4,9.7l-13-13L47.2,142.8z M67.4,182.8l6.5-11.7h68.1l7.6,13.6
	l1.5,2.7H64.9L67.4,182.8z M152.8,186.9l-0.5-0.8l-8.7-15.7L157,157l13.4-13.4l16.5,9.2l-17,17L152.8,186.9z M162.3,8.5l-10.2,18.3
	H63.9L52.5,6.3l-2-3.6h115.1L162.3,8.5z M63.2,29.1l9.2,16.5L59,59L45.6,72.4l-16.5-9.2L63.2,29.1z M29.1,152.8l16.5-9.2L59,157
	l13.4,13.4l-9.2,16.5l-17-17L29.1,152.8z M53.2,208.4l10.7-19.2h88.2l9.7,17.4l3.8,6.8H50.5L53.2,208.4z M153.7,188.5l17.4-17.4
	l17.4-17.4l24.2,13.4l0.2,0.1l-45.6,45.6L153.7,188.5z M207.5,162.3l-18.3-10.2V63.9l18.3-10.2l5.8-3.2v115.1L207.5,162.3z
	 M48.8,3.2l0.8,1.4l12.7,22.9L44.9,44.9L27.5,62.3L3.2,48.8L48.8,3.2z M27.5,153.7l17.4,17.4l17.4,17.4L49.2,212l-0.4,0.8L3.2,167.2
	L27.5,153.7z"/>
</svg>

<?xml version="1.0" encoding="utf-8"?>
<svg x="0px" y="0px" viewBox="0 0 216 216" xmlns="http://www.w3.org/2000/svg">
  <defs>
    <pattern id="pattern-0" x="0" y="0" width="20" height="20" patternUnits="userSpaceOnUse" viewBox="0 0 100 100">
      <path d="M 0 0 L 50 0 L 50 100 L 0 100 Z" style="fill: black;"/>
    </pattern>
  </defs>
  <path d="M 27.5 153.7 L 44.9 171.1 L 62.3 188.5 L 49.2 212 L 48.8 212.8 L 3.2 167.2 L 27.5 153.7 Z M 48.8 3.2 L 49.6 4.6 L 62.3 27.5 L 44.9 44.9 L 27.5 62.3 L 3.2 48.8 L 15.133 36.867 L 48.8 3.2 Z M 207.5 162.3 L 189.2 152.1 L 189.2 63.9 L 207.5 53.7 L 213.3 50.5 L 213.3 165.6 L 207.5 162.3 Z M 153.7 188.5 L 171.1 171.1 L 188.5 153.7 L 212.7 167.1 L 212.9 167.2 L 167.3 212.8 L 153.7 188.5 Z M 53.2 208.4 L 63.9 189.2 L 152.1 189.2 L 161.8 206.6 L 165.6 213.4 L 50.5 213.4 L 53.2 208.4 Z M 29.1 152.8 L 45.6 143.6 L 59 157 L 72.4 170.4 L 63.2 186.9 L 46.2 169.9 L 29.1 152.8 Z M 63.2 29.1 L 72.4 45.6 L 59 59 L 45.6 72.4 L 29.1 63.2 L 63.2 29.1 Z M 162.3 8.5 L 152.1 26.8 L 63.9 26.8 L 52.5 6.3 L 50.5 2.7 L 165.6 2.7 L 162.3 8.5 Z M 152.8 186.9 L 152.3 186.1 L 143.6 170.4 L 157 157 L 170.4 143.6 L 186.9 152.8 L 169.9 169.8 L 152.8 186.9 Z M 67.4 182.8 L 73.9 171.1 L 142 171.1 L 149.6 184.7 L 151.1 187.4 L 64.9 187.4 L 67.4 182.8 Z M 47.2 142.8 L 50.3 141.1 L 56.9 137.4 L 78.6 159.1 L 73.2 168.8 L 60.2 155.8 L 47.2 142.8 Z M 28.6 151.1 L 28.6 64.9 L 31.3 66.4 L 44.9 74 L 44.9 142 L 33.2 148.5 L 28.6 151.1 Z M 73.2 47.2 L 78.6 56.9 L 56.9 78.6 L 47.2 73.2 L 60.2 60.2 L 73.2 47.2 Z M 149 32.5 L 142.1 45 L 73.9 45 L 67.8 34 L 64.8 28.6 L 151.1 28.6 L 149 32.5 Z M 186.9 63.2 L 186.7 63.3 L 170.3 72.4 L 157 59 L 143.6 45.6 L 152.7 29.2 L 152.8 29 L 169.8 46 L 186.9 63.2 Z M 142.8 168.8 L 137.4 159.1 L 159.1 137.4 L 165.7 141.1 L 168.8 142.8 L 155.8 155.8 L 142.8 168.8 Z M 76.4 166.6 L 80.2 159.8 L 135.8 159.8 L 139.6 166.6 L 141.1 169.3 L 74.9 169.3 L 76.4 166.6 Z M 139.6 49.4 L 135.8 56.2 L 80.2 56.2 L 76.4 49.4 L 74.9 46.7 L 141.1 46.7 L 139.6 49.4 Z M 168.8 73.2 L 159.1 78.6 L 137.4 56.9 L 142.8 47.2 L 155.8 60.2 L 168.8 73.2 Z M 159.8 135.8 L 159.8 80.2 L 166.6 76.4 L 169.3 74.9 L 169.3 141.1 L 168.6 140.7 L 159.8 135.8 Z M 57.9 80.1 L 80 58 L 135.9 58 L 158 80.1 L 158 136 L 135.9 158.1 L 80.1 158.1 L 58 136 L 58 80.1 L 57.9 80.1 Z M 46.7 141.1 L 46.7 74.9 L 49.4 76.4 L 56.2 80.2 L 56.2 135.8 L 47.3 140.7 L 46.7 141.1 Z M 187.4 151.1 L 182 148.1 L 171 142 L 171 74 L 187.4 64.9 L 187.4 151.1 Z M 167.2 3.2 L 212.8 48.8 L 211.9 49.3 L 188.5 62.3 L 153.7 27.5 L 167.1 3.3 L 167.2 3.2 Z M 2.7 50.5 L 9.5 54.3 L 26.9 64 L 26.9 152.2 L 9.5 161.9 L 2.7 165.7 L 2.7 50.5 Z M 270.763 183.956 Z" style="stroke-linejoin: round; stroke-width: 0.1; fill: rgb(255, 255, 255); stroke: rgb(51, 51, 51);"/>
</svg>
